src/images/youtube.svg

<svg fill="none" height="30" viewBox="0 0 30 30" width="30" xmlns="http://www.w3.org/2000/svg"><path clip-rule="evenodd" d="m12.3844 6.31944c3.5947-.17082 7.3528.00732 10.8108.17083 2.4452.11714 3.5507 1.13965 3.929 3.36769.1586.93714.2196 2.36714.2684 3.39214.1147 2.4501.083 5.0027-.2684 6.9794-.3929 2.2134-1.4545 3.2481-3.9534 3.3677-4.5635.2172-9.4003.2782-14.25169.0976-2.42572-.0903-4.67817-.0952-5.56402-1.7327-.74675-1.3836-.85412-3.5849-.85412-5.7348 0-2.0987-.03173-4.5513.26844-6.32053.327-1.91812 1.16649-3.13586 3.24567-3.34329 1.98157-.19767 4.08032-.13422 6.36932-.24404zm0 11.93336c2.2061-1.0811 4.4683-2.3159 6.711-3.4409-2.189-1.2275-4.4829-2.3501-6.711-3.5385z" fill="#fff" fill-rule="evenodd"/></svg>

<svg width="30" height="30" viewBox="0 0 30 30" fill="none" xmlns="http://www.w3.org/2000/svg">
<path fill-rule="evenodd" clip-rule="evenodd" d="M12.3844 6.31944C15.9791 6.14862 19.7372 6.32676 23.1952 6.49027C25.6404 6.60741 26.7459 7.62992 27.1242 9.85796C27.2828 10.7951 27.3438 12.2251 27.3926 13.2501C27.5073 15.7002 27.4756 18.2528 27.1242 20.2295C26.7313 22.4429 25.6697 23.4776 23.1708 23.5972C18.6073 23.8144 13.7705 23.8754 8.91911 23.6948C6.49339 23.6045 4.24094 23.5996 3.35509 21.9621C2.60834 20.5785 2.50097 18.3772 2.50097 16.2273C2.50097 14.1286 2.46924 11.676 2.76941 9.90677C3.09641 7.98865 3.9359 6.77091 6.01508 6.56348C7.99665 6.36581 10.0954 6.42926 12.3844 6.31944ZM12.3844 18.2528C14.5905 17.1717 16.8527 15.9369 19.0954 14.8119C16.9064 13.5844 14.6125 12.4618 12.3844 11.2734C12.3844 13.599 12.3844 15.9271 12.3844 18.2528Z" fill="white"/>
</svg>
